X:302
T:Helvic Head
T:Walk Out of It Hogan
R:jig
D:Fisherstreet
Z:id:hn-jig-302
M:6/8
K:G
~G3 AGE|~A3 AGE|~G3 AGE|GAB GED|
~G3 AGE|~A3 ABc|BAG AGE|GAB GED:|
|:BGG AGG|BGG AGE|BGG AGE|~G3 GED|
BGG cAA|dBB eAA|BGG AGE|~G3 GED:|
|:~g3 dBG|~A3 ABd|~g3 dBG|dgf g2a|
bag agf|gfe dBG|BAG AGE|~G3 GED:|
|:G2c BGd|BGd AFD|G2c BGd|AFD GED|
G2c BGd|BGd ABc|BAG AGE|~G3 GED:|
|:~D3 ~D3|A3 AGE|~D3 ~D3|G3 GED|
~D3 ~D3|A3 ABc|BAG AGE|GAB GED:|

